flaticon/web-design/grid.svg

<svg xmlns="http://www.w3.org/2000/svg" width="32" height="32" viewBox="0 0 24 24">
    <path d="M12 13.742188C11.792969 13.742188 11.625 13.910156 11.625 14.117188L11.625 15.53125C11.625 15.738281 11.792969 15.90625 12 15.90625 12.207031 15.90625 12.375 15.738281 12.375 15.53125L12.375 14.117188C12.375 13.910156 12.207031 13.742188 12 13.742188zM12 8.09375C11.792969 8.09375 11.625 8.261719 11.625 8.46875L11.625 9.882812C11.625 10.089844 11.792969 10.257812 12 10.257812 12.207031 10.257812 12.375 10.089844 12.375 9.882812L12.375 8.46875C12.375 8.261719 12.207031 8.09375 12 8.09375zM12 16.566406C11.792969 16.566406 11.625 16.734375 11.625 16.941406L11.625 18.355469C11.625 18.5625 11.792969 18.730469 12 18.730469 12.207031 18.730469 12.375 18.5625 12.375 18.355469L12.375 16.941406C12.375 16.734375 12.207031 16.566406 12 16.566406zM12 5.269531C11.792969 5.269531 11.625 5.4375 11.625 5.644531L11.625 7.058594C11.625 7.265625 11.792969 7.433594 12 7.433594 12.207031 7.433594 12.375 7.265625 12.375 7.058594L12.375 5.644531C12.375 5.4375 12.207031 5.269531 12 5.269531zM7.058594 11.625L5.644531 11.625C5.4375 11.625 5.269531 11.792969 5.269531 12 5.269531 12.207031 5.4375 12.375 5.644531 12.375L7.058594 12.375C7.265625 12.375 7.433594 12.207031 7.433594 12 7.433594 11.792969 7.265625 11.625 7.058594 11.625zM9.882812 11.625L8.46875 11.625C8.261719 11.625 8.09375 11.792969 8.09375 12 8.09375 12.207031 8.261719 12.375 8.46875 12.375L9.882812 12.375C10.089844 12.375 10.257812 12.207031 10.257812 12 10.257812 11.792969 10.089844 11.625 9.882812 11.625zM12.707031 11.625L12.375 11.625 12.375 11.292969C12.375 11.085938 12.207031 10.917969 12 10.917969 11.792969 10.917969 11.625 11.085938 11.625 11.292969L11.625 11.625 11.292969 11.625C11.085938 11.625 10.917969 11.792969 10.917969 12 10.917969 12.207031 11.085938 12.375 11.292969 12.375L11.625 12.375 11.625 12.707031C11.625 12.914062 11.792969 13.082031 12 13.082031 12.207031 13.082031 12.375 12.914062 12.375 12.707031L12.375 12.375 12.707031 12.375C12.914062 12.375 13.082031 12.207031 13.082031 12 13.082031 11.792969 12.914062 11.625 12.707031 11.625zM18.355469 11.625L16.941406 11.625C16.734375 11.625 16.566406 11.792969 16.566406 12 16.566406 12.207031 16.734375 12.375 16.941406 12.375L18.355469 12.375C18.5625 12.375 18.730469 12.207031 18.730469 12 18.730469 11.792969 18.5625 11.625 18.355469 11.625zM15.53125 11.625L14.117188 11.625C13.910156 11.625 13.742188 11.792969 13.742188 12 13.742188 12.207031 13.910156 12.375 14.117188 12.375L15.53125 12.375C15.738281 12.375 15.90625 12.207031 15.90625 12 15.90625 11.792969 15.738281 11.625 15.53125 11.625zM15.53125 11.625"/>
    <path d="M20.617188 3.105469L3.382812 3.105469C3.175781 3.105469 3.007812 3.273438 3.007812 3.480469L3.007812 20.519531C3.007812 20.726562 3.175781 20.894531 3.382812 20.894531L20.617188 20.894531C20.824219 20.894531 20.992188 20.726562 20.992188 20.519531L20.992188 3.480469C20.992188 3.273438 20.824219 3.105469 20.617188 3.105469zM20.242188 11.625L19.765625 11.625C19.558594 11.625 19.390625 11.792969 19.390625 12 19.390625 12.207031 19.558594 12.375 19.765625 12.375L20.242188 12.375 20.242188 20.140625 12.375 20.140625 12.375 19.765625C12.375 19.558594 12.207031 19.390625 12 19.390625 11.792969 19.390625 11.625 19.558594 11.625 19.765625L11.625 20.140625 3.757812 20.140625 3.757812 12.375 4.234375 12.375C4.441406 12.375 4.609375 12.207031 4.609375 12 4.609375 11.792969 4.441406 11.625 4.234375 11.625L3.757812 11.625 3.757812 3.859375 11.625 3.859375 11.625 4.234375C11.625 4.441406 11.792969 4.609375 12 4.609375 12.207031 4.609375 12.375 4.441406 12.375 4.234375L12.375 3.859375 20.242188 3.859375zM20.617188.300781C20.410156.300781 20.242188.46875 20.242188.675781L20.242188 2.28125C20.242188 2.488281 20.410156 2.65625 20.617188 2.65625 20.824219 2.65625 20.992188 2.488281 20.992188 2.28125L20.992188.675781C20.992188.46875 20.824219.300781 20.617188.300781zM23.625 3.105469L22.019531 3.105469C21.8125 3.105469 21.644531 3.273438 21.644531 3.480469 21.644531 3.691406 21.8125 3.859375 22.019531 3.859375L23.625 3.859375C23.832031 3.859375 24 3.691406 24 3.480469 24 3.273438 23.832031 3.105469 23.625 3.105469zM3.382812.300781C3.175781.300781 3.007812.46875 3.007812.675781L3.007812 2.28125C3.007812 2.488281 3.175781 2.65625 3.382812 2.65625 3.589844 2.65625 3.757812 2.488281 3.757812 2.28125L3.757812.675781C3.757812.46875 3.589844.300781 3.382812.300781zM1.980469 3.105469L.375 3.105469C.167969 3.105469 0 3.273438 0 3.480469 0 3.691406.167969 3.859375.375 3.859375L1.980469 3.859375C2.1875 3.859375 2.355469 3.691406 2.355469 3.480469 2.355469 3.273438 2.1875 3.105469 1.980469 3.105469zM20.617188 21.34375C20.410156 21.34375 20.242188 21.511719 20.242188 21.71875L20.242188 23.324219C20.242188 23.53125 20.410156 23.699219 20.617188 23.699219 20.824219 23.699219 20.992188 23.53125 20.992188 23.324219L20.992188 21.71875C20.992188 21.511719 20.824219 21.34375 20.617188 21.34375zM23.625 20.140625L22.019531 20.140625C21.8125 20.140625 21.644531 20.308594 21.644531 20.519531 21.644531 20.726562 21.8125 20.894531 22.019531 20.894531L23.625 20.894531C23.832031 20.894531 24 20.726562 24 20.519531 24 20.308594 23.832031 20.140625 23.625 20.140625zM3.382812 21.34375C3.175781 21.34375 3.007812 21.511719 3.007812 21.71875L3.007812 23.324219C3.007812 23.53125 3.175781 23.699219 3.382812 23.699219 3.589844 23.699219 3.757812 23.53125 3.757812 23.324219L3.757812 21.71875C3.757812 21.511719 3.589844 21.34375 3.382812 21.34375zM1.980469 20.140625L.375 20.140625C.167969 20.140625 0 20.308594 0 20.519531 0 20.726562.167969 20.894531.375 20.894531L1.980469 20.894531C2.1875 20.894531 2.355469 20.726562 2.355469 20.519531 2.355469 20.308594 2.1875 20.140625 1.980469 20.140625zM1.980469 20.140625"/>
</svg>

<svg xmlns="http://www.w3.org/2000/svg" width="32" height="32" viewBox="0 0 24 24">
    <path d="M12 13.742a.375.375 0 0 0-.375.375v1.414a.375.375 0 0 0 .75 0v-1.414a.375.375 0 0 0-.375-.375zm0 0M12 8.094a.375.375 0 0 0-.375.375v1.414a.375.375 0 0 0 .75 0V8.469A.375.375 0 0 0 12 8.094zm0 0M12 16.566a.375.375 0 0 0-.375.375v1.414a.375.375 0 0 0 .75 0v-1.414a.375.375 0 0 0-.375-.375zm0 0M12 5.27a.375.375 0 0 0-.375.375v1.414a.375.375 0 0 0 .75 0V5.645A.375.375 0 0 0 12 5.27zm0 0M7.059 11.625H5.645a.375.375 0 0 0 0 .75h1.414a.375.375 0 0 0 0-.75zm0 0M9.883 11.625H8.469a.375.375 0 0 0 0 .75h1.414a.375.375 0 0 0 0-.75zm0 0M12.707 11.625h-.332v-.332a.375.375 0 0 0-.75 0v.332h-.332a.375.375 0 0 0 0 .75h.332v.332a.375.375 0 0 0 .75 0v-.332h.332a.375.375 0 0 0 0-.75zm0 0M18.355 11.625h-1.414a.375.375 0 0 0 0 .75h1.414a.375.375 0 0 0 0-.75zm0 0M15.531 11.625h-1.414a.375.375 0 0 0 0 .75h1.414a.375.375 0 0 0 0-.75zm0 0"/>
    <path d="M20.617 3.105H3.383a.375.375 0 0 0-.375.375v17.04c0 .207.168.375.375.375h17.234a.375.375 0 0 0 .375-.375V3.48a.375.375 0 0 0-.375-.375zm-.375 8.52h-.476a.375.375 0 0 0 0 .75h.476v7.766h-7.867v-.375a.375.375 0 0 0-.75 0v.375H3.758v-7.766h.476a.375.375 0 0 0 0-.75h-.476V3.859h7.867v.375a.375.375 0 0 0 .75 0V3.86h7.867zm0 0M20.617.3a.375.375 0 0 0-.375.376V2.28a.375.375 0 0 0 .75 0V.676A.375.375 0 0 0 20.617.3zm0 0M23.625 3.105H22.02a.375.375 0 0 0-.375.375c0 .211.168.38.375.38h1.605A.376.376 0 0 0 24 3.48a.375.375 0 0 0-.375-.375zm0 0M3.383.3a.375.375 0 0 0-.375.376V2.28a.375.375 0 0 0 .75 0V.676A.375.375 0 0 0 3.383.3zm0 0M1.98 3.105H.375A.375.375 0 0 0 0 3.48c0 .211.168.38.375.38H1.98a.376.376 0 0 0 .375-.38.375.375 0 0 0-.375-.375zm0 0M20.617 21.344a.375.375 0 0 0-.375.375v1.605a.375.375 0 0 0 .75 0V21.72a.375.375 0 0 0-.375-.375zm0 0M23.625 20.14H22.02a.376.376 0 0 0-.375.38c0 .207.168.375.375.375h1.605A.375.375 0 0 0 24 20.52a.376.376 0 0 0-.375-.38zm0 0M3.383 21.344a.375.375 0 0 0-.375.375v1.605a.375.375 0 0 0 .75 0V21.72a.375.375 0 0 0-.375-.375zm0 0M1.98 20.14H.375a.376.376 0 0 0-.375.38c0 .207.168.375.375.375H1.98a.375.375 0 0 0 .375-.375.376.376 0 0 0-.375-.38zm0 0"/>
</svg>
